fileicons/images/Table_16x.svg

<ns0:svg xmlns:ns0="http://www.w3.org/2000/svg" viewBox="0 0 16 16">
  <ns0:defs>
    <ns0:style>.canvas{fill: none; opacity: 0;}.light-defaultgrey-10{fill: #212121; opacity: 0.1;}.light-defaultgrey{fill: #212121; opacity: 1;}</ns0:style>
  </ns0:defs>
  <ns0:title>IconLightTable</ns0:title>
  <ns0:g id="canvas" style="fill:none;opacity:0;">
    <ns0:path d="M16,16H0V0H16Z" style="fill:none;opacity:0;" />
  </ns0:g>
  <ns0:g id="level-1">
    <ns0:path d="M14.5,13.5H2.5V2.5h12Z" style="fill:#212121;opacity:0.1;" />
    <ns0:path d="M14.5,2H2.5L2,2.5v11l.5.5h12l.5-.5V2.5ZM6,13H3V11H6Zm0-3H3V8H6ZM6,7H3V5H6Zm4,6H7V11h3Zm0-3H7V8h3Zm0-3H7V5h3Zm4,6H11V11h3Zm0-3H11V8h3Zm0-3H11V5h3Zm0-3H3V3H14Z" style="fill:#212121;opacity:1;" />
  </ns0:g>
</ns0:svg>

<?xml version="1.0" encoding="iso-8859-1"?>
<!-- Generator: Adobe Illustrator 20.1.0, SVG Export Plug-In . SVG Version: 6.00 Build 0)  -->
<svg version="1.1" xmlns="http://www.w3.org/2000/svg" xmlns:xlink="http://www.w3.org/1999/xlink" x="0px" y="0px"
	 viewBox="0 0 16 16" style="enable-background:new 0 0 16 16;" xml:space="preserve">
<g id="canvas">
	<path style="opacity:0;fill:#F6F6F6;" d="M16,16H0V0h16V16z"/>
</g>
<g id="outline">
	<path style="fill:#F6F6F6;" d="M16,15H1V1h15V15z"/>
</g>
<g id="iconBg">
	<path style="fill:#656565;" d="M2,2v12h13V2H2z M6,13H3v-2h3V13z M6,10H3V8h3V10z M6,7H3V5h3V7z M10,13H7v-2h3V13z M10,10H7V8h3V10
		z M10,7H7V5h3V7z M14,13h-3v-2h3V13z M14,10h-3V8h3V10z M14,7h-3V5h3V7z"/>
</g>
<g id="iconFg">
	<path style="fill:#F3F3F3;" d="M14,7h-3V5h3V7z M14,8h-3v2h3V8z M10,5H7v2h3V5z M10,8H7v2h3V8z M6,5H3v2h3V5z M6,8H3v2h3V8z M14,11
		h-3v2h3V11z M10,11H7v2h3V11z M6,11H3v2h3V11z"/>
</g>
</svg>
